!!!OTL: Brueder, nuetzt das freie Leben.
!!!OTL-incipit: BRUEDER NUETZT DAS FREIE LEBEN
!!!COM: Studentenweise
!!!ARE: Europa, Mitteleuropa, Deutschland
!!!SCT: F0541
!!!TXL: @@DE
!!!YEM: Copyright 1995, estate of Helmut Schaffrath.
**kern	**text
*ICvox	*
*clefG2	*
*M3/2	*
*k[b-e-]	*
*B-:	*
!LO:TX:a:t=Lebhaft und markig.	!
!LO:TX:a:t=P:only the highest voice encoded:problem	!
{4b-/	Brü-
4f	-der,
=1	=1
2g	nütʒt
2a	das
8b-/L	frei-
8ccJ	.
8dd/L	-e
8b-J	.
=2	=2
2f	Le-
2d}	-ben,
{4f	das
4b-/	nur
=3	=3
2g	we-
2ee-/	-nig
8dd/L	Jah-
8ccJ	.
8b-/L	-re
8aJ	.
=4	=4
2b-/	währt;
2r}	.
{4b-/	Nichts
4f	kann
=5	=5
2g	es
2a	euch
8b-/L	wie-
8ccJ	.
8dd/L	-der-
8b-J	.
=6	=6
2f	-ge-
2d}	-ben,
{4f	wenn
4b-/	ihr
=7	=7
2g	einſt
2ee-/	nach
8dd/L	Hau-
8ccJ	.
8b-/L	-ſe
8aJ	.
=8	=8
2b-/	kehrt.
2r}	.
{4a	Da
4b-/	müßt
=9	=9
2cc/	ihr
2ff/	der
8ee-/L	Mo-
8dd/J	.
8cc/L	-de
8b-J	.
=10	=10
(>4a	die-
4b-/)	.
4cc/	-nen,
4r}	.
{4a	ſitt-
4b-/	-ſam
=11	=11
2cc/	ſein
2ff/	in
8ee-/L	Gang
8dd/J	.
8cc/L	und
8b-J	.
=12	=12
(>4a	Mie-
4b-/)	.
4cc/	-nen,
4r}	.
{8b-/L	dies
8ccJ	.
8dd/L	be-
8b-J	.
=13	=13
2g	-denkt,
2ee-/	und
4cc/	ſeid
4a	fi-
=14	=14
(>8b-/L	-del,
8cc	.
8dd	.
8ee-J	.
4ff/)	.
4r}	.
{4gg	dies
4gg	be-
=15	=15
2.ff	-denkt,
4dd	und
(8ffL	ſeid
8ee-J)	.
(8ddL	fi-
8ccJ)	.
=16	=16
(>2cc/	-del.
4b-'/)	.
4r}	.
==	==
!!!AGN: Studenten -, Trink - Lied
!!!ONB: ESAC (Essen Associative Code) Database: FINK
!!!AMT: simple triple
!!!AIN: vox
!!!EED: Helmut Schaffrath
!!!EEV: 1.0
!!!RDF**kern: > = above
!!!GTL: Studentenlieder
!!Text: Studentenlied
!!!source: Musikalischer Hausschatz der Deutschen. Eine Sammlung von über 1000 Liedern und Gesängen mit Singstimmen und Klavierbegleitung. Leipzig, Litterarisches Verlags-Haus.
!!!page: 347
!!!URL-scan: https://www.digitale-sammlungen.de/en/view/bsb11144622?page=324
!!!ENC: Anna Maria Matuszewska
!!!EEV: 2024/08/02
*-	*-